X:6034
T:Gan Ainm 
R:Reel
S:
H:
N:
D:Irish Dancing Tape (P. Acc)
Z:Adrian Scahill
M:4/4
L:1/8
K:C
c2ec AGED|CA, (3A,A,A, G,A,CD|EGcd e2dc|Addc dfed|\
c2ec AGED|CA, (3A,A,A, G,A,CD|EGce dcAc|GEDE C3B:||\
(3cdc Gc acgc|fcec dcAc|Gcc2 Gcef|gece d2eg|\
aee2 gede|cdec decA|(3GAG EG cBcA|GEDE C4:||
